X:216
T:The Red River Valley
Z:Jack Campin, http://www.campin.me.uk/
F:Jack Campin's Nine-Note Tunebook
% last edit 03-02-2013
M:4/4
L:1/8
Q:1/4=120
K:G
DG |B2Bc B2AG|EG3- G2 \
DG |B2GB d2cB|A6
dc |B2BA G2AB|dc3- c2 \
E_E|D2FG A2BA|G6   z2|]

